X:28
T:Gånglåt från Nordmaling
R:Gånglåt
Z:Anton Teljebäck 2007-09-05
O:Västerbotten
M:4/4
L:1/8
K:D
vA>d cd B>g gf|ed cB (Ad) (FG) |A>d cd B>g gf|eA Bc d4:|
|:vf>g ag a>b ag|A>g fe f>g fe|d>d cd B>g gf|eA Bc d4:|
(:musicend:)

(:music:)
